outputs/icons/charts/chart_doughnut_round.svg

<svg xmlns="http://www.w3.org/2000/svg" width="1200" height="1200" fill="none"><path fill="#000" d="M539.52 255.875c6.02-1.191 10.48-6.393 10.48-12.534V113.813c0-7.396-6.41-13.186-13.745-12.241C292.71 132.942 100 345.274 100 600c0 254.725 192.71 467.055 436.255 498.43 7.335.945 13.745-4.845 13.745-12.24V956.66c0-6.14-4.46-11.345-10.48-12.535C393.092 915.18 250 771.9 250 600c0-171.899 143.092-315.181 289.52-344.125m407.26 283.42c1.09 6.125 6.34 10.705 12.555 10.705h126.935c7.365 0 13.14-6.38 12.28-13.695-28.02-238.194-196.66-406.834-434.855-434.856-7.315-.861-13.695 4.915-13.695 12.281v129.434c0 6.219 4.58 11.466 10.705 12.551C802.45 280.829 921.55 397.662 946.78 539.295m-286.075 404.99C654.58 945.37 650 950.62 650 956.835v129.435c0 7.365 6.38 13.14 13.695 12.28 238.195-28.02 406.835-196.66 434.855-434.855.86-7.315-4.915-13.695-12.28-13.695H959.335c-6.215 0-11.465 4.58-12.555 10.705-25.23 141.635-144.33 258.465-286.075 283.58"/></svg>

<svg width="1200" height="1200" viewBox="0 0 1200 1200" fill="none" xmlns="http://www.w3.org/2000/svg"><path d="M539.52 255.875C545.54 254.684 550 249.482 550 243.341V113.813C550 106.417 543.59 100.627 536.255 101.572C292.71 132.942 100 345.274 100 600C100 854.725 292.71 1067.055 536.255 1098.43C543.59 1099.375 550 1093.585 550 1086.19V956.66C550 950.52 545.54 945.315 539.52 944.125C393.092 915.18 250 771.9 250 600C250 428.101 393.092 284.819 539.52 255.875ZM946.78 539.295C947.87 545.42 953.12 550 959.335 550H1086.27C1093.635 550 1099.41 543.62 1098.55 536.305C1070.53 298.111 901.89 129.471 663.695 101.449C656.38 100.588 650 106.364 650 113.73V243.164C650 249.383 654.58 254.63 660.705 255.715C802.45 280.829 921.55 397.662 946.78 539.295ZM660.705 944.285C654.58 945.37 650 950.62 650 956.835V1086.27C650 1093.635 656.38 1099.41 663.695 1098.55C901.89 1070.53 1070.53 901.89 1098.55 663.695C1099.41 656.38 1093.635 650 1086.27 650H959.335C953.12 650 947.87 654.58 946.78 660.705C921.55 802.34 802.45 919.17 660.705 944.285Z" fill="#1D1E23"/></svg>
